markets/LUSD.svg

<svg width="42" height="42" viewBox="0 0 42 42" fill="none" xmlns="http://www.w3.org/2000/svg">
<g clip-path="url(#clip0_7277_55625)">
<g clip-path="url(#clip1_7277_55625)">
<mask id="mask0_7277_55625" style="mask-type:luminance" maskUnits="userSpaceOnUse" x="0" y="0" width="42" height="42">
<path d="M42 0H0V42H42V0Z" fill="white"/>
</mask>
<g mask="url(#mask0_7277_55625)">
<path d="M41.16 27.0145C38.9424 34.6585 32.5752 40.4041 24.7464 41.8153V35.8345C26.1576 35.2969 27.4344 34.4401 28.476 33.3313C29.0472 32.7097 29.5512 32.0209 29.9376 31.2817C30.6768 29.8705 31.08 28.3081 31.08 26.7121C31.08 26.6953 31.08 26.6785 31.08 26.6617C31.08 21.3865 27.2664 19.2697 23.688 17.7073L21.8736 16.9009C19.9416 16.0273 18.4632 15.2545 18.4632 13.9441C18.4632 12.1129 20.0592 11.1386 21.5544 11.1386C23.1504 11.1386 24.0576 11.7265 25.0152 13.3897L25.7544 14.6833L30.5424 11.6089L29.9208 10.4498C28.8288 8.36655 26.964 6.75375 24.7464 5.98095V0.50415C25.2168 0.58815 25.6704 0.68895 26.1408 0.80655C26.1912 0.82335 26.2416 0.82335 26.292 0.84015C26.3424 0.85695 26.3928 0.85695 26.4432 0.87375C26.46 0.87375 26.4768 0.87375 26.4936 0.89055C26.6112 0.92415 26.7456 0.95775 26.88 0.99135C35.8512 3.59535 42.0168 11.8105 42.0168 21.1513C42.0168 23.1337 41.7312 25.1161 41.1768 27.0145H41.16Z" fill="#745DDF"/>
<path d="M25.2 26.9473C25.2 29.3497 23.0328 30.8449 21.0168 30.8449C18.5976 30.8449 17.22 28.8457 16.9512 26.9977L16.716 25.3849L10.92 27.0145L11.1888 28.3081C12.012 32.3905 14.8008 35.3305 18.5976 36.2041V41.9833C17.5728 41.8657 16.548 41.6641 15.5568 41.3953C15.4224 41.3617 15.2712 41.3281 15.1368 41.2777C6.1824 38.6737 0 30.4585 0 21.1177V0.940876C0 0.487276 0.3696 0.117676 0.8232 0.117676H18.5976V5.89688C16.5144 6.50168 14.7504 7.87928 13.6416 9.72728C12.936 10.9537 12.5664 12.3313 12.5664 13.7425C12.5664 13.7593 12.5664 13.7761 12.5664 13.7929V13.9105C12.6168 18.6145 16.0776 20.5969 19.3536 22.0753L20.9832 22.7809L21.1176 22.8481C23.7048 24.0409 25.1664 24.8137 25.1664 26.9305L25.2 26.9473Z" fill="#2EB6EA"/>
<path d="M31.0632 26.6618C31.0632 26.6786 31.0632 26.6954 31.0632 26.7122C31.0632 28.3082 30.6768 29.8706 29.9208 31.2818C29.5344 32.021 29.0304 32.7266 28.4592 33.3314C27.4176 34.4402 26.1408 35.297 24.7296 35.8346V41.8322L23.0496 41.9834C23.0496 41.9834 19.4544 42.0842 18.5976 41.9834L18.5808 36.221C14.8008 35.3306 12.012 32.4074 11.172 28.325L10.9032 27.0314L16.6992 25.4018L16.9344 27.0146C17.2032 28.8626 18.5808 30.8618 21 30.8618C23.016 30.8618 25.1832 29.3666 25.1832 26.9642C25.1832 24.8474 23.7216 24.0746 21.1176 22.8818L20.9832 22.8146L19.3536 22.109C16.0776 20.6306 12.6168 18.665 12.5664 13.9442V13.8266C12.5664 13.8098 12.5664 13.793 12.5664 13.7762C12.5664 12.365 12.936 10.9874 13.6416 9.76095C14.7504 7.89615 16.5144 6.51855 18.5976 5.93055V0.151353C22.3776 0.117753 22.68 0.134553 24.7464 0.504153V5.99775C26.9808 6.77055 28.8288 8.36655 29.9208 10.4666L30.5424 11.6258L25.7544 14.7002L25.0152 13.4066C24.0576 11.7434 23.1504 11.1554 21.5544 11.1554C20.0424 11.1554 18.4632 12.1298 18.4632 13.961C18.4632 15.2882 19.9416 16.061 21.8736 16.9178L23.688 17.7242C27.2664 19.2866 31.08 21.4034 31.08 26.6786L31.0632 26.6618Z" fill="white"/>
</g>
</g>
</g>
<defs>
<clipPath id="clip0_7277_55625">
<rect width="42" height="42" fill="white"/>
</clipPath>
<clipPath id="clip1_7277_55625">
<rect width="42" height="42" rx="21" fill="white"/>
</clipPath>
</defs>
</svg>

<svg xmlns="http://www.w3.org/2000/svg" width="42" height="42" fill="none"><g clip-path="url(#a)"><g clip-path="url(#b)"><mask id="c" width="42" height="42" x="0" y="0" maskUnits="userSpaceOnUse" style="mask-type:luminance"><path fill="#fff" d="M42 0H0v42h42V0Z"/></mask><g mask="url(#c)"><path fill="#745DDF" d="M41.16 27.015a20.987 20.987 0 0 1-16.414 14.8v-5.98a10.014 10.014 0 0 0 3.73-2.504 9.698 9.698 0 0 0 1.462-2.05 9.849 9.849 0 0 0 1.142-4.569v-.05c0-5.275-3.814-7.392-7.392-8.955l-1.814-.806c-1.932-.874-3.41-1.646-3.41-2.957 0-1.831 1.595-2.805 3.09-2.805 1.596 0 2.504.588 3.461 2.25l.74 1.294 4.787-3.074-.621-1.16a9.344 9.344 0 0 0-5.175-4.468V.504c.47.084.924.185 1.395.303.05.016.1.016.151.033.05.017.1.017.151.034.017 0 .034 0 .05.017.118.033.253.067.387.1a20.987 20.987 0 0 1 15.137 20.16c0 1.983-.286 3.965-.84 5.864h-.017Z"/><path fill="#2EB6EA" d="M25.2 26.947c0 2.403-2.167 3.898-4.183 3.898-2.42 0-3.797-2-4.066-3.847l-.235-1.613-5.796 1.63.269 1.293c.823 4.083 3.612 7.023 7.409 7.896v5.78a20.68 20.68 0 0 1-3.041-.589c-.135-.033-.286-.067-.42-.117C6.182 38.674 0 30.458 0 21.118V.94C0 .487.37.118.823.118h17.775v5.779a8.576 8.576 0 0 0-4.956 3.83 8.033 8.033 0 0 0-1.076 4.015V13.912c.05 4.704 3.512 6.686 6.788 8.164l1.63.706.134.067c2.587 1.193 4.048 1.966 4.048 4.082l.034.017Z"/><path fill="#fff" d="M31.063 26.662v.05a9.649 9.649 0 0 1-1.142 4.57 9.288 9.288 0 0 1-1.462 2.05 10.014 10.014 0 0 1-3.73 2.503v5.997l-1.68.151s-3.595.101-4.451 0l-.017-5.762c-3.78-.89-6.569-3.814-7.409-7.896l-.269-1.294 5.796-1.63.235 1.614c.27 1.848 1.647 3.847 4.066 3.847 2.016 0 4.183-1.495 4.183-3.898 0-2.117-1.461-2.89-4.065-4.082l-.135-.067-1.63-.706c-3.275-1.478-6.736-3.444-6.787-8.165v-.167c0-1.412.37-2.79 1.076-4.016a8.444 8.444 0 0 1 4.956-3.83V.15c3.78-.033 4.082-.016 6.148.353v5.494a9.226 9.226 0 0 1 5.175 4.469l.621 1.159-4.788 3.074-.739-1.293c-.957-1.664-1.865-2.252-3.46-2.252-1.513 0-3.092.975-3.092 2.806 0 1.327 1.479 2.1 3.41 2.957l1.815.806c3.578 1.563 7.392 3.68 7.392 8.955l-.017-.017Z"/></g></g></g><defs><clipPath id="a"><path fill="#fff" d="M0 0h42v42H0z"/></clipPath><clipPath id="b"><rect width="42" height="42" fill="#fff" rx="21"/></clipPath></defs></svg>
